X:1
T:Villarrica, 11.11.11.11 D
T:Villarrica, 11.11.11.11 D
T:C. L. Chamberlin, 1900
T:Public Domain Courtesy of the Cyber Hymnal™
C:C. L. Chamberlin, 1900
Z:Public Domain
Z:Courtesy of the Cyber Hymnal™
%%score 1 ( 2 3 )
L:1/8
Q:1/4=90
M:4/4
K:A
V:1 treble 
V:2 bass 
V:3 bass 
V:1
 [Ec]>[Ec] [CA]>[CE] [DF]2 [CE]2 | [A,C]>[CE] [CA]>[CB] [DG]4 | [Ed]>[Ed] [Ed]>[EB] [EG]2 [DG]2 | %3
 [CA]>[CA] [DG]>[DF] [CE]4 | [Ec]>[Ec] [EA]>[CE] [DF]2 [DF]2 | [^DF]>[DF] [DB]>[DA] [EG]4 | %6
 [EA]>[EA] [EB]>[Ec] [Fe]>[Fd] [DF]>[FA] | [EG]2 [EB]2 [EA]4 | [Ac]>[Ac] [Ac]>[Ac] [GB]2 [GB]2 | %9
 [FA]>[FA] [FA]>[FA] [^EG]4 | [DF]>[DF] [DF]>[DF] [CE]2 [EA]2 | [EB]>[EB] [EB]>[Ec] [EB]4 | %12
 [Ec]>[Ec] [EA]>[CE] [DF]2 [DF]2 | [^DF]>[DF] [DB]>[DA] [EG]4 | %14
 [EA]>[EA] [EB]>[Ec] [Fe]>[Fd] [DF]>[FA] | [EG]2 [EB]2 [EA]4 |] %16
V:2
 [A,,A,]>[A,,A,] [A,,A,]>[A,,A,] [A,,A,]2 [A,,A,]2 | [A,,E,]>[A,,E,] [A,,E,]>[A,,E,] [B,,F,]4 | %2
 [E,G,]>[E,G,] [E,G,]>[E,G,] [E,B,]2 [E,B,]2 | A,>A, A,>A, A,4 | %4
 A,>[E,A,] [C,A,]>[A,,A,] [D,A,]2 [D,A,]2 | [B,,B,]>[B,,B,] [B,,F,]>[B,,B,] [E,B,]4 | %6
 [C,A,]>[C,A,] [E,G,]>A, [D,A,]>[D,A,] [D,A,]>[D,D] | [E,B,]2 [E,D]2 [A,C]4 | %8
 [A,E]>[A,E] [A,E]>[A,E] [E,C]2 [E,B,]2 | [F,C]>[F,C] [F,C]>[F,C] [C,C]4 | %10
 [D,A,]>[D,A,] [D,A,]>[D,A,] [A,,A,]2 [C,A,]2 | [B,,G,]>[B,,G,] [B,,G,]>[B,,G,] [E,G,]4 | %12
 A,>[E,A,] [C,A,]>[A,,A,] [D,A,]2 [D,A,]2 | [B,,B,]>[B,,B,] [B,,F,]>[B,,B,] [E,B,]4 | %14
 [C,A,]>[C,A,] [E,G,]>A, [D,A,]>[D,A,] [D,A,]>[D,D] | [E,B,]2 [E,D]2 [A,C]4 |] %16
V:3
 x8 | x8 | x8 | A,>A, A,>A, A,4 | A,3/2 x13/2 | x8 | x7/2 A,/ x4 | x8 | x8 | x8 | x8 | x8 | %12
 A,3/2 x13/2 | x8 | x7/2 A,/ x4 | x8 |] %16

